X:1
T:Title
%%score { ( 1 3 ) | ( 2 4 ) }
L:1/8
M:4/2
K:Db
V:1 treble nm="Grand Piano"
V:3 treble 
V:2 bass 
V:4 bass 
V:1
 z8 z4[Q:1/4=216] [FA]4 | [B,DEB]8 z8 | [B,D]12 [CE]4 | [DF]4 [EA]4 [Dd]4 [Ed]4 | z8 z4 B4 | %5
 A4 F4 D4 G4 |[M:6/4] E12 |[M:2/4] A4 |[M:8/4] B4 c4 [Ad]4 [=Gd]4 | [Af]4 [Ae]4 [Ad]4 =A4 | %10
 c8 B4 E4 | F8 G8 | [DE]8 [CF]8 |[M:6/4] D12 |] %14
V:2
 z8 z4 [D,A,D]4 | G,4 z4 [A,,E,G,A,]8 | [B,,D,F,]12 [A,,A,]4 | [D,A,]4 [C,A,]4 [B,,F,]4 [B,,=G,]4 | %4
 [A,,A,]8 [A,,A,]4 .[G,B,E]4 | [F,A,D]4 [D,A,D]4 [G,B,]4 [E,B,D]4 |[M:6/4] [A,C]12 | %7
[M:2/4] [A,CE]4 |[M:8/4] [=G,B,E]4 [_G,A,E]4 [F,A,]4 [B,D]4 | [A,D]4 [G,C]4 [F,D]4 [F,CE]4 | %10
 [G,=A,E]8 [G,B,D]4 [G,B,D]4 | [F,A,D]8 [E,B,D]8 | [A,,A,]8 [A,,G,]8 |[M:6/4] [D,F,]12 |] %14
V:3
 x16 | z4 F,4 [CEA]8 | x16 | x16 | [Ed]8 [Ec]4 z2 C2 | x16 |[M:6/4] x12 |[M:2/4] x4 |[M:8/4] x16 | %9
 x16 | x16 | x16 | x16 |[M:6/4] x12 |] %14
V:4
 x16 | G,,8 z8 | x16 | x16 | x16 | x16 |[M:6/4] x12 |[M:2/4] x4 |[M:8/4] x16 | x16 | x16 | x16 | %12
 x16 |[M:6/4] x12 |] %14

